icons/circle/48/totem.svg

<svg xmlns="http://www.w3.org/2000/svg" viewBox="0 0 48 48">
 <defs>
  <linearGradient id="linearGradient3157" gradientUnits="userSpaceOnUse" gradientTransform="matrix(0,-1,1,0,-1.5e-6,47.999998)" x1="1" x2="47">
   <stop style="stop-color:#6b74c7;stop-opacity:1"/>
   <stop offset="1" style="stop-color:#7a81cc;stop-opacity:1"/>
  </linearGradient>
 </defs>
 <g>
  <path d="m 36.31 5 c 5.859 4.062 9.688 10.831 9.688 18.5 c 0 12.426 -10.07 22.5 -22.5 22.5 c -7.669 0 -14.438 -3.828 -18.5 -9.688 c 1.037 1.822 2.306 3.499 3.781 4.969 c 4.085 3.712 9.514 5.969 15.469 5.969 c 12.703 0 23 -10.298 23 -23 c 0 -5.954 -2.256 -11.384 -5.969 -15.469 c -1.469 -1.475 -3.147 -2.744 -4.969 -3.781 z m 4.969 3.781 c 3.854 4.113 6.219 9.637 6.219 15.719 c 0 12.703 -10.297 23 -23 23 c -6.081 0 -11.606 -2.364 -15.719 -6.219 c 4.16 4.144 9.883 6.719 16.219 6.719 c 12.703 0 23 -10.298 23 -23 c 0 -6.335 -2.575 -12.06 -6.719 -16.219 z" style="opacity:0.05"/>
  <path d="m 41.28 8.781 c 3.712 4.085 5.969 9.514 5.969 15.469 c 0 12.703 -10.297 23 -23 23 c -5.954 0 -11.384 -2.256 -15.469 -5.969 c 4.113 3.854 9.637 6.219 15.719 6.219 c 12.703 0 23 -10.298 23 -23 c 0 -6.081 -2.364 -11.606 -6.219 -15.719 z" style="opacity:0.1"/>
  <path d="m 31.25 2.375 c 8.615 3.154 14.75 11.417 14.75 21.13 c 0 12.426 -10.07 22.5 -22.5 22.5 c -9.708 0 -17.971 -6.135 -21.12 -14.75 a 23 23 0 0 0 44.875 -7 a 23 23 0 0 0 -16 -21.875 z" style="opacity:0.2"/>
 </g>
 <path d="m 3.811 13 c -1.783 3.268 -2.813 7.02 -2.813 11 0 12.703 10.297 23 23 23 12.703 0 23 -10.297 23 -23 0 -3.985 -1.03 -7.732 -2.813 -11 z" style="fill:url(#linearGradient3157);fill-opacity:1"/>
 <path d="M 20,18 20,38 34.996094,28 M 20,18" style="fill:#000;opacity:0.1;fill-opacity:1;stroke:none;fill-rule:nonzero"/>
 <path d="m 3.844 13 c -0.181 0.332 -0.366 0.659 -0.531 1 l 41.38 0 c -0.165 -0.341 -0.35 -0.668 -0.531 -1 z" style="fill:#000;opacity:0.1;fill-opacity:1;stroke:none;fill-rule:evenodd"/>
 <path d="M 19,17 19,37 33.996094,27 M 19,17" style="fill:#e5e6ff;fill-opacity:1;stroke:none;fill-rule:nonzero"/>
 <path d="M 24,1 C 15.282,1 7.713,5.851 3.81,13 l 40.38,0 C 40.289,5.851 32.721,1 24,1 Z" style="fill:#616161;fill-opacity:1;stroke:none;fill-rule:evenodd"/>
 <path d="m 17.453 7 1.23 2 -1.23 2 -2.461 0 1.23 -2 -1.23 -2 m 2.461 0" style="fill:#f9f9f9;fill-opacity:1;stroke:none;fill-rule:evenodd"/>
 <path d="m 22.328 7 1.23 2 -1.23 2 -2.461 0 1.23 -2 -1.23 -2 m 2.461 0" style="fill:#f9f9f9;fill-opacity:1;stroke:none;fill-rule:evenodd"/>
 <path d="m 27.04 7 1.23 2 -1.23 2 -2.461 0 1.23 -2 -1.23 -2 m 2.461 0" style="fill:#f9f9f9;fill-opacity:1;stroke:none;fill-rule:evenodd"/>
 <path d="m 31.758 7 1.23 2 -1.23 2 -2.461 0 1.23 -2 -1.23 -2 m 2.461 0" style="fill:#f9f9f9;fill-opacity:1;stroke:none;fill-rule:evenodd"/>
 <g>
  <path d="m 40.03 7.531 c 3.712 4.084 5.969 9.514 5.969 15.469 0 12.703 -10.297 23 -23 23 c -5.954 0 -11.384 -2.256 -15.469 -5.969 4.178 4.291 10.01 6.969 16.469 6.969 c 12.703 0 23 -10.298 23 -23 0 -6.462 -2.677 -12.291 -6.969 -16.469 z" style="opacity:0.1"/>
 </g>
</svg>

<svg xmlns="http://www.w3.org/2000/svg" viewBox="0 0 48 48">
  <defs>
    <linearGradient id="a" gradientUnits="userSpaceOnUse" gradientTransform="rotate(-90 24 24)" x1="1" x2="47">
      <stop stop-color="#6b74c7"/>
      <stop offset="1" stop-color="#7a81cc"/>
    </linearGradient>
  </defs>
  <path d="M36.31 5c5.859 4.062 9.688 10.831 9.688 18.5 0 12.426-10.07 22.5-22.5 22.5-7.669 0-14.438-3.828-18.5-9.688a23.24 23.24 0 0 0 3.781 4.969 22.923 22.923 0 0 0 15.469 5.969c12.703 0 23-10.298 23-23a22.92 22.92 0 0 0-5.969-15.469A23.216 23.216 0 0 0 36.31 5zm4.969 3.781A22.911 22.911 0 0 1 47.498 24.5c0 12.703-10.297 23-23 23a22.909 22.909 0 0 1-15.719-6.219C12.939 45.425 18.662 48 24.998 48c12.703 0 23-10.298 23-23 0-6.335-2.575-12.06-6.719-16.219z" opacity=".05"/>
  <path d="M41.28 8.781a22.923 22.923 0 0 1 5.969 15.469c0 12.703-10.297 23-23 23A22.92 22.92 0 0 1 8.78 41.281 22.911 22.911 0 0 0 24.499 47.5c12.703 0 23-10.298 23-23A22.909 22.909 0 0 0 41.28 8.781z" opacity=".1"/>
  <path d="M31.25 2.375C39.865 5.529 46 13.792 46 23.505c0 12.426-10.07 22.5-22.5 22.5-9.708 0-17.971-6.135-21.12-14.75a23 23 0 0 0 44.875-7 23 23 0 0 0-16-21.875z" opacity=".2"/>
  <path d="M3.811 13A22.922 22.922 0 0 0 .998 24c0 12.703 10.297 23 23 23s23-10.297 23-23c0-3.985-1.03-7.732-2.813-11z" fill="url(#a)"/>
  <path d="M20 18v20l14.996-10M20 18" opacity=".1"/>
  <path d="M3.844 13c-.181.332-.366.659-.531 1h41.38c-.165-.341-.35-.668-.531-1z" opacity=".1" fill-rule="evenodd"/>
  <path d="M19 17v20l14.996-10M19 17" fill="#e5e6ff"/>
  <path d="M24 1C15.282 1 7.713 5.851 3.81 13h40.38C40.289 5.851 32.721 1 24 1z" fill="#616161" fill-rule="evenodd"/>
  <path d="M17.453 7l1.23 2-1.23 2h-2.461l1.23-2-1.23-2m2.461 0M22.328 7l1.23 2-1.23 2h-2.461l1.23-2-1.23-2m2.461 0M27.04 7l1.23 2-1.23 2h-2.461l1.23-2-1.23-2m2.461 0M31.758 7l1.23 2-1.23 2h-2.461l1.23-2-1.23-2m2.461 0" fill="#f9f9f9" fill-rule="evenodd"/>
  <g>
    <path d="M40.03 7.531A22.922 22.922 0 0 1 45.999 23c0 12.703-10.297 23-23 23A22.92 22.92 0 0 1 7.53 40.031C11.708 44.322 17.54 47 23.999 47c12.703 0 23-10.298 23-23 0-6.462-2.677-12.291-6.969-16.469z" opacity=".1"/>
  </g>
</svg>
